X: 17065
T: Heathery Cruach, The
R: reel
M: 4/4
K: Dmajor
A/B/c|:d2AG FDAG|FDAF EABc|d2AG FDAG|FGAF Dgfe|
d2AG FDDE|FGAF E2FG|ABAG FDDE|1 FGAF D2:|FGAF Dfed||
|:cAA2 cAGA|cBcd efed|cAA2 cAGE|FAGE Dfed|
cAA2 cAGA|cBcd e2~e2|f2ed cAAG|1 EFGE Afed:|EFGE D2||

